icons/fortran/fortran-original.svg

<?xml version="1.0" encoding="UTF-8"?>
<svg xmlns="http://www.w3.org/2000/svg" xmlns:xlink="http://www.w3.org/1999/xlink" width="128px" height="128px" viewBox="0 0 128 128" version="1.1">
<g id="surface1">
<path style=" stroke:none;fill-rule:nonzero;fill:rgb(45.098039%,30.980392%,58.823529%);fill-opacity:1;" d="M 18.78125 128.015625 C 11.210938 128.015625 0 114.804688 0 109.113281 L 0 18.660156 C 0 11 13.25 0 18.96875 0 L 109.589844 0.0078125 C 117.410156 0.0078125 128.019531 12.761719 128.019531 18.839844 L 128.019531 109.382812 C 128.019531 118.300781 116.070312 127.980469 109.332031 127.984375 Z M 18.78125 128.015625 "/>
<path style=" stroke:none;fill-rule:nonzero;fill:rgb(100%,100%,100%);fill-opacity:1;" d="M 17.574219 103.109375 L 22.496094 102.804688 C 32.484375 102.152344 32.382812 102.203125 32.886719 94.375 C 33.335938 86.945312 32.769531 28.777344 32.433594 27.613281 C 31.882812 25.691406 29.816406 24.585938 23.648438 24.589844 L 17.574219 24.550781 L 17.574219 13.660156 L 110.941406 13.660156 L 110.941406 55.371094 L 99.949219 55.207031 C 99.847656 55.109375 99.546875 52.160156 99.34375 49.449219 C 98.191406 36.699219 95.328125 29.363281 89.808594 26.5 C 86.894531 24.996094 82.351562 24.550781 67.789062 24.546875 L 54.21875 24.550781 L 54.21875 55.824219 L 56.628906 55.824219 C 60.695312 55.773438 65.863281 54.820312 67.570312 53.765625 C 69.78125 52.410156 71.636719 48.496094 72.289062 43.777344 C 72.78125 40.332031 73.160156 37.753906 73.160156 37.753906 L 83.835938 37.753906 L 83.835938 87.445312 L 72.792969 87.445312 L 72.792969 85.488281 C 72.792969 82.277344 71.285156 74.796875 70.230469 72.539062 C 68.574219 69.074219 65.765625 67.871094 57.78125 67.117188 L 54.117188 66.765625 L 54.320312 82.878906 C 54.46875 98.1875 54.570312 99.042969 55.523438 100.347656 C 56.730469 101.953125 58.035156 102.253906 66.015625 102.855469 L 71.371094 103.113281 L 71.335938 114.050781 L 17.574219 114.050781 Z M 17.574219 103.109375 "/>
</g>
</svg>

<svg width="128" height="128" viewBox="0 0 128 128" xmlns="http://www.w3.org/2000/svg">
  <path style="fill:#734c94;fill-opacity:1;fill-rule:nonzero;stroke:none" d="M18.969 0C13.25 0 0 11 0 18.66v90.453c0 5.692 11.21 18.903 18.781 18.903l90.551-.032c6.738-.004 18.688-9.683 18.688-18.601V18.84c0-6.078-10.61-18.832-18.43-18.832L18.969 0zm-1.395 13.66h93.367v41.711l-10.992-.164c-.101-.098-.402-3.047-.605-5.758C98.19 36.7 95.328 29.363 89.809 26.5c-2.914-1.504-7.457-1.95-22.02-1.953l-13.57.004v31.273h2.41c4.066-.05 9.234-1.004 10.941-2.058 2.211-1.356 4.067-5.27 4.72-9.989.491-3.445.87-6.023.87-6.023h10.676v49.691H72.793v-1.957c0-3.21-1.508-10.691-2.563-12.949-1.656-3.465-4.464-4.668-12.449-5.422l-3.664-.351.203 16.113c.149 15.308.25 16.164 1.203 17.469 1.207 1.605 2.512 1.906 10.493 2.507l5.355.258-.035 10.938H17.574v-10.942l4.922-.304c9.988-.653 9.887-.602 10.39-8.43.45-7.43-.116-65.598-.452-66.762-.551-1.922-2.618-3.027-8.786-3.023l-6.074-.04V13.66z"/>
</svg>
